; HEADER_BLOCK_START
; generated by OrcaSlicer 2.2.0 on 2025-03-16 at 01:55:43
; total layer number: 718
; filament_density: 1.27,1.27,1.27,1.27,1.27,1.27,1.27,1.27,1.27,1.27,1.27,1.27,1.27,1.27,1.27,1.27,1.27,1.27,1.27,1.27,1.27,1.27,1.27,1.27,1.27,1.27,1.27,1.27,1.27,1.27,1.27,1.27,1.27,1.27,1.27,1.27,1.27,1.27,1.27,1.27,1.27,1.27,1.27,1.27,1.27,1.27,1.27,1.27,1.27,1.27,1.27,1.27,1.27,1.27,1.27,1.27,1.27,1.27,1.27,1.27,1.27,1.27,1.27
; filament_diameter: 1.75,1.75,1.75,1.75,1.75,1.75,1.75,1.75,1.75,1.75,1.75,1.75,1.75,1.75,1.75,1.75,1.75,1.75,1.75,1.75,1.75,1.75,1.75,1.75,1.75,1.75,1.75,1.75,1.75,1.75,1.75,1.75,1.75,1.75,1.75,1.75,1.75,1.75,1.75,1.75,1.75,1.75,1.75,1.75,1.75,1.75,1.75,1.75,1.75,1.75,1.75,1.75,1.75,1.75,1.75,1.75,1.75,1.75,1.75,1.75,1.75,1.75,1.75
; max_z_height: 143.85
; HEADER_BLOCK_END

; THUMBNAIL_BLOCK_START

;
; THUMBNAIL_BLOCK_END

; THUMBNAIL_BLOCK_START

;
; THUMBNAIL_BLOCK_END

; external perimeters extrusion width = 0.40mm
; perimeters extrusion width = 0.40mm
; infill extrusion width = 0.40mm
; solid infill extrusion width = 0.40mm
; top infill extrusion width = 0.40mm
; support material extrusion width = 0.40mm
; first layer extrusion width = 0.40mm

; EXECUTABLE_BLOCK_START
M73 P0 R203
M201 X500 Y500 Z100 E5000
M203 X500 Y500 Z10 E60
M204 P500 R1000 T500
M205 X8.00 Y8.00 Z0.40 E5.00 ; sets the jerk limits, mm/sec
;TYPE:Custom
G90 ; use absolute coordinates
M83 ; extruder relative mode
M140 S85 ; set final bed temp
M104 S150 ; set temporary nozzle temp to prevent oozing during homing
G4 S10 ; allow partial nozzle warmup
G28 ; home all axis
G1 Z50 F240
G1 X2 Y10 F3000
M104 S215 ; set final nozzle temp
M190 S85 ; wait for bed temp to stabilize
M109 S215 ; wait for nozzle temp to stabilize
G1 Z0.28 F240
G92 E0
G1 Y140 E10 F1500 ; prime the nozzle
G1 X2.3 F5000
G92 E0
G1 Y10 E10 F1200 ; prime the nozzle
G92 E0
G90
G21
M83 ; use relative distances for extrusion
; filament start gcode
M106 P3 S180
;Prevent PLA from jamming

T0
M106 S0
;LAYER_CHANGE
;Z:0.25
;HEIGHT:0.25
;BEFORE_LAYER_CHANGE
;0.25
G92 E0

G1 E-4.5 F3600
;_SET_FAN_SPEED_CHANGING_LAYER
M204 S500
; printing object Phoenix3D_d68_Door.stl id:4473363698580226177 copy 0
G1 Z.65 F9000
G1 X109.337 Y95.328
G1 Z.65
G1 Z.25
G1 E4.5 F2400
;TYPE:Support
;WIDTH:0.4
G1 F900
G3 X106.884 Y95.229 I-1.824 J14.747 E3.25614
G3 X109.285 Y95.323 I.707 J12.619 E.0862
M73 P0 R202
G1 X121.93 Y113.3 F9000
G1 F900
M73 P0 R202
G1 X121.93 Y107.652 E.20231
G2 X121.545 Y105.946 I-24.382 J4.604 E.06266
G1 X121.545 Y114.212 E.29606
G1 X121.16 Y115.324 E.04214
G1 X121.16 Y104.834 E.37572
G2 X120.775 Y103.952 I-4.814 J1.574 E.03454
G1 X120.775 Y116.206 E.43894
G3 X120.39 Y116.986 I-4.276 J-1.625 E.0312
G1 X120.39 Y103.172 E.4948
G1 X120.006 Y102.505 E.02757
G1 X120.006 Y117.653 E.54255
G3 X119.621 Y118.249 I-3.315 J-1.717 E.02546
G1 X119.621 Y101.909 E.58527
G1 X119.236 Y101.369 E.02376
G1 X119.236 Y118.789 E.62398
G3 X118.851 Y119.284 I-2.785 J-1.768 E.0225
G1 X118.851 Y100.873 E.65946
G1 X118.466 Y100.429 E.02105
G1 X118.466 Y119.729 E.69128
G3 X118.081 Y120.164 I-2.472 J-1.797 E.02085
G1 X118.081 Y99.994 E.72247
G1 X117.697 Y99.627 E.01905
G1 X117.697 Y120.531 E.74876
G1 X117.312 Y120.898 E.01905
G1 X117.312 Y99.26 E.77504
G2 X116.927 Y98.926 I-1.943 J1.848 E.01829
G1 X116.927 Y121.232 E.79899
G1 X116.542 Y121.535 E.01754
G1 X116.542 Y98.623 E.82067
G1 X116.157 Y98.32 E.01754
G1 X116.157 Y121.837 E.84235
G3 X115.772 Y122.102 I-1.581 J-1.883 E.01676
G1 X115.772 Y98.055 E.86134
G1 X115.388 Y97.808 E.01639
G1 X115.388 Y122.35 E.87906
G1 X115.003 Y122.597 E.01639
G1 X115.003 Y97.561 E.89677
G2 X114.618 Y97.345 I-1.321 J1.907 E.01582
G1 X114.618 Y122.813 E.91221
G1 X114.233 Y123.011 E.01551
G1 X114.233 Y97.147 E.92642
G1 X113.848 Y96.948 E.01551
G1 X113.848 Y123.209 E.94064
G3 X113.463 Y123.388 I-1.126 J-1.926 E.01522
G1 X113.463 Y96.77 E.95341
G1 X113.079 Y96.616 E.01485
G1 X113.079 Y123.542 E.96445
G1 X112.694 Y123.696 E.01485
G1 X112.694 Y96.462 E.97549
G2 X112.309 Y96.312 I-.975 J1.94 E.01481
G1 X112.309 Y123.845 E.9862
G1 X111.924 Y123.958 E.01437
G1 X111.924 Y96.199 E.99429
G1 X111.539 Y96.086 E.01437
G1 X111.539 Y124.071 E1.00239
G1 X111.154 Y124.184 E.01437
G1 X111.154 Y95.973 E1.01048
G2 X110.77 Y95.886 I-.65 J1.971 E.01416
G1 X110.77 Y124.272 E1.01675
G1 X110.385 Y124.346 E.01404
G1 X110.385 Y95.812 E1.02206
G1 X110 Y95.738 E.01404
G1 X110 Y124.42 E1.02738
G3 X109.615 Y124.49 I-.557 J-1.98 E.01403
G1 X109.615 Y95.668 E1.03236
G1 X109.23 Y95.631 E.01385
G1 X109.23 Y124.527 E1.03499
G1 X108.846 Y124.563 E.01385
G1 X108.846 Y95.595 E1.03762
G1 X108.461 Y95.558 E.01385
G1 X108.461 Y124.6 E1.04026
G3 X108.076 Y124.617 I-.281 J-2.007 E.01382
G1 X108.076 Y95.541 E1.04147
M73 P0 R201
G1 X107.691 Y95.541 E.01378
G1 X107.691 Y124.617 E1.04147
G1 X107.306 Y124.617 E.01378
M73 P0 R201
G1 X107.306 Y95.541 E1.04147
G1 X106.921 Y95.541 E.01378
G1 X106.921 Y124.617 E1.04147
G3 X106.537 Y124.582 I-.011 J-2.032 E.01386
G1 X106.537 Y95.576 E1.03899
G1 X106.152 Y95.612 E.01385
G1 X106.152 Y124.546 E1.03636
G1 X105.767 Y124.509 E.01385
G1 X105.767 Y95.649 E1.03372
G2 X105.382 Y95.699 I.07 J2.04 E.01392
G1 X105.382 Y124.459 E1.03013
G1 X104.997 Y124.385 E.01404
G1 X104.997 Y95.773 E1.02482
G1 X104.612 Y95.848 E.01404
G1 X104.612 Y124.31 E1.0195
M73 P1 R201
G1 X104.228 Y124.236 E.01404
G1 X104.228 Y95.922 E1.01419
G2 X103.843 Y96.028 I.364 J2.068 E.01432
M73 P1 R201
G1 X103.843 Y124.13 E1.00658
G1 X103.458 Y124.017 E.01437
G1 X103.458 Y96.141 E.99849
G1 X103.073 Y96.254 E.01437
G1 X103.073 Y123.904 E.9904
G3 X102.688 Y123.776 I.479 J-2.079 E.01455
G1 X102.688 Y96.382 E.98121
G1 X102.303 Y96.536 E.01485
G1 X102.303 Y123.622 E.97017
G1 X101.919 Y123.468 E.01485
G1 X101.919 Y96.69 E.95914
G2 X101.534 Y96.846 I.621 J2.092 E.01489
G1 X101.534 Y123.312 E.948
G1 X101.149 Y123.114 E.01551
G1 X101.149 Y97.044 E.93379
G1 X100.764 Y97.242 E.01551
G1 X100.764 Y122.915 E.91958
G1 X100.379 Y122.717 E.01551
G1 X100.379 Y97.441 E.90537
G2 X99.994 Y97.68 I1.059 J2.134 E.01625
G1 X99.994 Y122.478 E.88824
G1 X99.61 Y122.231 E.01639
G1 X99.61 Y97.927 E.87053
G1 X99.225 Y98.174 E.01639
G1 X99.225 Y121.983 E.85281
G3 X98.84 Y121.692 I1.335 J-2.161 E.01732
G1 X98.84 Y98.466 E.83191
G1 X98.455 Y98.769 E.01754
G1 X98.455 Y121.389 E.81023
G1 X98.07 Y121.086 E.01754
G1 X98.07 Y99.071 E.78855
G2 X97.685 Y99.437 I1.721 J2.198 E.01903
G1 X97.685 Y120.721 E.76238
G1 X97.301 Y120.354 E.01905
G1 X97.301 Y99.804 E.7361
G2 X96.916 Y100.199 I1.878 J2.213 E.01979
G1 X96.916 Y119.959 E.70777
G1 X96.531 Y119.515 E.02105
G1 X96.531 Y100.643 E.67596
G2 X96.146 Y101.088 I2.138 J2.237 E.02111
G1 X96.146 Y119.069 E.64406
G1 X95.761 Y118.529 E.02376
G1 X95.761 Y101.629 E.60534
G1 X95.376 Y102.169 E.02376
G1 X95.376 Y117.989 E.56663
G3 X94.992 Y117.332 I3.248 J-2.344 E.02731
G1 X94.992 Y102.826 E.51956
G2 X94.607 Y103.515 I3.413 J2.359 E.0283
G1 X94.607 Y116.643 E.47024
G1 X94.222 Y115.8 E.03318
G1 X94.222 Y104.357 E.40987
G2 X93.837 Y105.37 I5.107 J2.521 E.03885
G1 X93.837 Y114.788 E.33736
G3 X93.452 Y113.462 I6.754 J-2.678 E.04955
G1 X93.452 Y106.696 E.24233
G2 X93.067 Y112.312 I21.52 J4.296 E.20218
G1 E-3.15 F3600
;WIPE_START
G1 F900
G1 X93.077 Y111.312 E-1.35
;WIPE_END
G1 Z.65 F9000
G1 X129.617 Y104.168 Z.65
M73 P1 R200
G1 Z.25
G1 E4.5 F2400
G1 F900
M73 P1 R200
G1 X130.656 Y104.437 E.03844
G3 X131.768 Y107.135 I-2.279 J2.518 E.10807
G3 X131.199 Y110.622 I-1.8 J1.496 E.14339
G1 X131.4 Y110.845 E.01077
G3 X130.931 Y113.655 I-2.692 J.994 E.10678
G3 X126.206 Y111.914 I-2.589 J-.255 E.34025
G1 X126.197 Y111.711 E.00728
G3 X127.816 Y109.86 I2.544 J.592 E.09172
G3 X126.367 Y106.43 I1.428 J-2.624 E.14401
G3 X129.565 Y104.162 I2.892 J.69 E.15333
G1 X128.764 Y109.031 F9000
G1 F900
G3 X127.966 Y110.485 I.053 J.975 E.14871
G3 X128.066 Y109.325 I1.314 J-.471 E.04303
G3 X128.712 Y109.034 I.711 J.716 E.02591
G1 X131.935 Y109.56 F9000
G1 F900
G2 X131.551 Y107.36 I-2.623 J-.675 E.08248
G1 X131.551 Y109.768 E.08627
G1 X131.166 Y110.194 E.02055
G1 X131.166 Y105.601 E.16449
G2 X130.781 Y105.11 I-.722 J.17 E.02306
G1 X130.781 Y113.25 E.29155
G2 X131.166 Y112.683 I-.339 J-.644 E.02556
G1 X131.166 Y110.818 E.06679
G1 X130.396 Y114.726 F9000
G1 F900
G1 X130.396 Y104.692 E.3594
G1 X130.011 Y104.592 E.01424
G1 X130.011 Y115.027 E.37377
G1 X129.626 Y115.308 E.01706
G1 X129.626 Y110.994 E.15452
G3 X129.242 Y111.213 I-.823 J-.996 E.01595
G1 X129.242 Y115.549 E.1553
G1 X128.857 Y115.648 E.01424
G1 X128.835 Y111.282 E.15641
G3 X128.472 Y111.246 I-.072 J-1.147 E.01311
G1 X128.472 Y115.744 E.16111
G1 X128.087 Y115.697 E.01389
G1 X128.087 Y111.084 E.16521
G3 X127.702 Y110.652 I.179 J-.547 E.02172
G1 X127.702 Y115.649 E.17898
G3 X127.317 Y115.478 I.05 J-.631 E.01537
G1 X127.317 Y110.615 E.17421
G1 X126.933 Y110.898 E.01712
G1 X126.933 Y115.251 E.1559
G3 X126.548 Y114.854 I.478 J-.849 E.02007
G1 X126.548 Y111.699 E.11301
G3 X126.301 Y112.28 I-.883 J-.033 E.02312
G1 X126.163 Y112.7 E.01583
G1 X126.163 Y114.635 E.06932
G1 E-3.15 F3600
;WIPE_START
G1 F900
G1 X126.163 Y113.635 E-1.35
;WIPE_END
G1 Z.65 F9000
G1 X128.684 Y110.41 Z.65
G1 X129.175 Y109.769
G1 X129.172 Y109.766
G1 X129.626 Y109.216
G1 Z.25
G1 E4.5 F2400
G1 F900
G1 X129.626 Y104.493 E.16917
G2 X129.242 Y104.437 I-.401 J1.412 E.01397
G1 X129.242 Y108.793 E.15603
G2 X128.857 Y108.719 I-.363 J.855 E.01414
G1 X128.857 Y104.428 E.15371
G1 X128.472 Y104.535 E.01431
G1 X128.472 Y108.754 E.15112
G2 X128.087 Y108.912 I.371 J1.455 E.01494
G1 X128.087 Y104.689 E.15124
G2 X127.702 Y104.91 I.209 J.811 E.01607
G1 X127.691 Y109.395 E.16066
G3 X127.317 Y108.97 I1.326 J-1.541 E.02034
G1 X127.317 Y105.299 E.13147
G2 X126.933 Y105.962 I2.258 J1.754 E.02754
G1 X126.933 Y108.556 E.09293
G3 X126.548 Y106.427 I2.189 J-1.495 E.07986
G1 E-3.15 F3600
;WIPE_START
G1 F900
G1 X126.548 Y107.427 E-1.35
;WIPE_END
G1 Z.65 F9000
G1 X128.556 Y109.639 Z.65
G1 X128.516 Y109.664
G1 X128.516 Y109.788
G1 X128.716 Y109.788
G1 Z.25
G1 E4.5 F2400
;TYPE:Outer wall
G1 F900
G3 X128.851 Y109.789 I.065 J.352 E.00485
G1 X128.885 Y109.793 E.00123
G3 X128.896 Y110.184 I-.042 J.197 E.01917
G3 X128.716 Y110.212 I-.13 J-.24 E.00667
G1 X128.716 Y109.828 E.01373
; stop printing object Phoenix3D_d68_Door.stl id:4473363698580226177 copy 0
G1 E-3.15 F3600
;WIPE_START
G1 F900
G1 X128.851 Y109.789 E-.18937
G1 X128.885 Y109.793 E-.04644
G1 X129.001 Y109.875 E-.19137
G1 X129.046 Y109.981 E-.15624
G1 X129.044 Y110.041 E-.08068
G1 X129.002 Y110.124 E-.12662
G1 X128.971 Y110.158 E-.06125
G1 X128.896 Y110.184 E-.10695
G1 X128.85 Y110.214 E-.07473
G1 X128.716 Y110.212 E-.18125
G1 X128.716 Y110.112 E-.1351
;WIPE_END
;LAYER_CHANGE
;Z:0.45
;HEIGHT:0.2
;BEFORE_LAYER_CHANGE
;0.45
G92 E0

;_SET_FAN_SPEED_CHANGING_LAYER
M104 S207 ; set nozzle temperature
M140 S75 ; set bed temperature
; printing object Phoenix3D_d68_Door.stl id:4473363698580226177 copy 0
G1 Z.85 F9000
G1 X130.087 Y108.364
G1 Z.45
G1 E4.5 F2400
;TYPE:Support
G1 F2278
G1 X130.127 Y108.375 E.00124
G3 X130.238 Y108.564 I-.198 J.243 E.00659
G3 X129.83 Y108.649 I-.214 J-.005 E.01696
G3 X129.927 Y108.375 I.231 J-.072 E.00921
G1 X130.035 Y108.351 E.00326
G1 X129.329 Y107.627 F9000
G1 F2278
G1 X129.209 Y107.776 E.00565
G2 X128.721 Y107.309 I-8.512 J8.407 E.01997
G3 X129.227 Y106.157 I2.729 J.511 E.03749
G3 X129.791 Y106.638 I-1.262 J2.052 E.02198
G3 X129.259 Y108.235 I-1.507 J.386 E.05254
G3 X128.29 Y107.339 I.617 J-1.639 E.03997
G3 X129.186 Y106.122 I1.12 J-.114 E.04894
G1 E-3.43333 F3600
;WIPE_START
G1 F3375
G1 X128.588 Y106.409 E-.70697
G1 X128.485 Y106.73 E-.35969
;WIPE_END
G1 Z.85 F9000
G1 X128.732 Y112.383 Z.85
G1 Z.45
G1 E4.5 F2400
G1 F2278
G3 X128.635 Y112.632 I-.41 J-.017 E.00803
G1 X128.7 Y112.391 E.00737
G1 X129.456 Y111.749 E.02929
G3 X129.566 Y111.937 I-.198 J.243 E.00659
G3 X129.207 Y112.196 I-.308 J-.05 E.0145
G2 X128.739 Y113.822 I13.335 J4.721 E.05005
G3 X128.159 Y112.857 I-.4 J-.416 E.06125
G3 X128.368 Y111.989 I3.561 J.396 E.02644
G2 X129.355 Y111.722 I.09 J-1.625 E.03074
G1 E-3.43333 F3600
;WIPE_START
G1 F3375
G1 X128.39 Y111.983 E-1.06667
;WIPE_END
G1 Z.85 F9000
G1 X106.426 Y98.079 Z.85
G1 Z.45
G1 E4.5 F2400
G1 F2278
G3 X108.2 Y98.026 I1.381 J16.449 E.05246
G1 X108.238 Y97.628 E.01182
G3 X106.998 Y97.623 I-.671 J12.444 E2.27666
G1 X108.185 Y97.623 E.03506
G1 X109.336 Y97.331 F9000
G1 F2278
G3 X108.204 Y97.223 I-1.788 J12.737 E2.35392
G1 X109.283 Y97.326 E.03202
G1 E-3.43333 F3600
;WIPE_START
G1 F3375
G1 X108.287 Y97.231 E-1.06667
;WIPE_END
G1 Z.85 F9000
G1 X128.71 Y109.461 Z.85
G1 Z.45
G1 E4.5 F2400
;TYPE:Outer wall
G1 F600
G1 X128.71 Y109.385 E.00225
M204 S250
;TYPE:Overhang wall
;WIDTH:0.404292
;HEIGHT:0.22
G1 X128.703 Y109.102 E.0092
G1 X128.871 Y109.148 E.00566
G1 X129.053 Y109.232 E.00651
G1 X129.235 Y109.371 E.00744
G1 X129.373 Y109.537 E.00702
G1 X129.45 Y109.695 E.00571
G1 X129.497 Y109.851 E.00529
G1 X129.509 Y110.049 E.00645
G1 X129.479 Y110.216 E.00551
G1 X129.377 Y110.457 E.0085
G1 X129.215 Y110.647 E.00811
G1 X129.121 Y110.722 E.00391
G1 X128.929 Y110.829 E.00714
G1 X128.703 Y110.898 E.00768
G1 X128.71 Y110.618 E.0091
M204 S500
;TYPE:Outer wall
;WIDTH:0.4
;HEIGHT:0.2
M106 S0
G1 X128.71 Y109.501 E.033
G1 E-3.15 F3600
;WIPE_START
G1 F600
G1 X128.71 Y109.385 E-.1575
G1 X128.703 Y109.102 E-.38173
G1 X128.871 Y109.148 E-.23552
G1 X129.053 Y109.232 E-.27042
G1 X129.233 Y109.369 E-.30483
;WIPE_END
G1 Z.85 F9000
G1 X129.005 Y109.414
G1 Z.85
G1 Z.45
G1 E4.5 F2400
;TYPE:Gap infill
;WIDTH:0.447767
G1 F2278
G1 X129.095 Y109.833 E.01436
;WIDTH:0.461679
G1 X129.109 Y109.925 E.00321
G3 X129.03 Y110.567 I-2.427 J.027 E.02248
G1 X128.95 Y110.615 F9000
;WIDTH:0.392548
G1 F2278
G2 X129.253 Y109.692 I-12.418 J-4.584 E.02813
G1 X128.959 Y109.385 F9000
;WIDTH:0.39814
G1 F2278
G1 X129.256 Y110.302 E.02835
; stop printing object Phoenix3D_d68_Door.stl id:4473363698580226177 copy 0
;LAYER_CHANGE
;Z:0.65
;HEIGHT:0.2
;BEFORE_LAYER_CHANGE
;0.65
G92 E0

G1 E-3.78765 F3600
;WIPE_START
G1 F4875
G1 X128.959 Y109.385 E-.71235
;WIPE_END
;_SET_FAN_SPEED_CHANGING_LAYER
; printing object Phoenix3D_d68_Door.stl id:4473363698580226177 copy 0
G1 Z1.05 F9000
G1 X129.206 Y106.683 Z1.05
G1 Z.65
G1 E4.5 F2400
;TYPE:Support
;WIDTH:0.4
G1 F2095
G3 X129.284 Y107.328 I-.83 J.427 E.0196
G3 X128.914 Y106.79 I-.143 J-.298 E.02762
G1 X128.906 Y106.225 E.01671
G3 X129.68 Y107.523 I-.018 J.891 E.05331
G3 X129.59 Y107.814 I-.261 J.079 E.00956
G3 X128.382 Y107.447 I2.051 J-8.91 E.03733
G3 X128.852 Y106.224 I1.082 J-.286 E.04133
G1 E-3.81429 F3600
;WIPE_START
G1 F5250
G1 X128.563 Y106.404 E-.23336
G1 X128.45 Y107.054 E-.45236
;WIPE_END
G1 Z1.05 F9000
G1 X128.416 Y113.213 Z1.05
G1 Z.65
G1 E4.5 F2400
G1 F2095
G3 X128.291 Y113.547 I-.122 J.145 E.01377
G3 X128.416 Y113.213 I.101 J-.153 E.01456
G1 X128.886 Y112.426 E.02706
G3 X128.802 Y113.1 I-.393 J.293 E.02217
G3 X128.189 Y112.883 I-.448 J.293 E.07879
G3 X128.84 Y112.402 I.656 J.206 E.02556
G1 E-3.81429 F3600
;WIPE_START
G1 F5250
G1 X128.49 Y112.478 E-.24552
G1 X128.189 Y112.883 E-.34631
G1 X128.108 Y112.994 E-.09388
;WIPE_END
G1 Z1.05 F9000
G1 X106.425 Y98.086 Z1.05
G1 Z.65
G1 E4.5 F2400
G1 F2095
G3 X108.2 Y98.032 I1.381 J16.437 E.05246
G1 X108.238 Y97.634 E.01182
G1 X108.774 Y97.685 E.01593
G3 X105.817 Y97.742 I-1.243 J12.391 E2.22396
G3 X108.184 Y97.629 I1.774 J12.337 E.07011
G1 X108.812 Y97.287 F9000
G1 F2095
G3 X105.76 Y97.345 I-1.282 J12.789 E2.29542
G3 X108.759 Y97.282 I1.789 J13.684 E.08878
G1 E-3.81429 F3600
;WIPE_START
G1 F5250
G1 X107.759 Y97.303 E-.68571
;WIPE_END
G1 Z1.05 F9000
G1 X129.064 Y109.214 Z1.05
G1 X129.06 Y109.228
G1 X129.06 Y109.228
G1 Z.65
G1 E4.5 F2400
;TYPE:Inner wall
G1 F1200
G1 X129.06 Y109.081 E.00435
G1 X129.295 Y109.329 E.0101
G3 X129.454 Y109.577 I-.898 J.753 E.00874
G3 X129.454 Y110.418 I-28.218 J.421 E.02483
G3 X129.059 Y110.918 I-1.498 J-.776 E.01895
G1 X129.06 Y109.268 E.04875
G1 X128.698 Y109.229 F9000
;TYPE:Outer wall
G1 F1200
G1 X128.691 Y108.899 E.00975
G1 F600
G1 X128.687 Y108.698 E.00594
M204 S250
;TYPE:Overhang wall
;WIDTH:0.404292
;HEIGHT:0.22
G1 X128.682 Y108.565 E.00433
G1 X129.038 Y108.688 E.01224
